X: 140
T: Ltt ' ta till ...
O: Ola Klemmentvold,Rros
R: Pols
Z: Hkan Lidn, 2008-09-27
M: 9/8
L: 1/4
K: D
DF/ A3/2 A B/ | G/F A3/2- A d/ | B B G E d/ | c/B/c/ d A/ F D/ | 
DF/ A3/2 A B/ | G/F A3/2- A d/ | B B G E d/ | c/B/c/ d3/2-d :|
|: B/ | d B/ c/ A B G/ | G/E/ E C C B,/ | D G/ E/ C A, G/ | F/E/F/ A3/2- A B/ |
d B/ c/ A B G/ | G/E/ E C C B,/ | D G/ E/ C A, G/ | F/E/F/ G3/2- G :|
